X:1
T:The Wild Rover  "CYMRU"
M:6/8
L:1/8
Q:80
C:
S:Irish Trad.
K:HP
|: A | \
{Gdc}d3/2e/2d{g}BAe | \
{g}fef{gf}g3 | \
-g2fg{ag}afa |
{f}ge{g}c{d}Afe | | \
|1 {Gdc}d3-d2A :| | \
|2 {Gdc}d3-d2|] |:
cd | \
{g}e3{GdG}e3 | \
{g}c{d}A2{g}ABc | \
{g}d2{g}f2{gfg}fef |
{gf}g3-gef | | \
{ag}a3-afd | \
{g}c{d}B2-B2{g}B |
{d}A{g}f2-f2e | \
{Gdc}d3{gdc}d :|
